src/assets/svg/eye-close.svg

<svg width="18" height="17" viewBox="0 0 18 17" fill="none" xmlns="http://www.w3.org/2000/svg">
<path d="M9.00066 11.8326C6.87925 11.8326 5.14355 10.1529 5.14355 8.09991C5.14355 6.04691 6.87925 4.36719 9.00066 4.36719C11.1221 4.36719 12.8578 6.04691 12.8578 8.09991C12.8578 10.1529 11.1221 11.8326 9.00066 11.8326ZM9.00066 5.61143C7.58639 5.61143 6.42926 6.73124 6.42926 8.09991C6.42926 9.46857 7.58639 10.5884 9.00066 10.5884C10.4149 10.5884 11.5721 9.46857 11.5721 8.09991C11.5721 6.73124 10.4149 5.61143 9.00066 5.61143Z" fill="#908C8C"/>
<path d="M9.00008 14.3213C4.89869 14.3213 1.29872 11.9075 0.0387279 8.29918C-0.0129093 8.17117 -0.0129093 8.02904 0.0387279 7.90103C1.29872 4.30517 4.91154 1.87891 9.00008 1.87891C13.0886 1.87891 16.7014 4.29273 17.9614 7.90103C18.0129 8.02545 18.0129 8.17476 17.9614 8.29918C16.7014 11.895 13.0886 14.3213 9.00008 14.3213ZM1.32443 8.1001C2.46871 11.0863 5.52868 13.0771 9.00008 13.0771C12.4715 13.0771 15.5186 11.0863 16.6757 8.1001C15.5315 5.11393 12.4715 3.12315 9.00008 3.12315C5.52868 3.12315 2.48156 5.11393 1.32443 8.1001Z" fill="#908C8C"/>
<path d="M16.7148 16.1876C16.6305 16.1886 16.5469 16.1725 16.4694 16.1403C16.3919 16.1082 16.3222 16.0607 16.2648 16.0009L0.83641 1.07005C0.57927 0.821198 0.57927 0.435484 0.83641 0.186636C1.09355 -0.062212 1.49212 -0.062212 1.74926 0.186636L17.1648 15.13C17.422 15.3788 17.422 15.7645 17.1648 16.0134C17.0363 16.1378 16.8691 16.2 16.7148 16.2V16.1876Z" fill="#908C8C"/>
</svg>

<svg xmlns="http://www.w3.org/2000/svg" width="18" height="17" fill="none"><path fill="#908C8C" d="M9 11.833c-2.12 0-3.856-1.68-3.856-3.733S6.879 4.367 9 4.367s3.857 1.68 3.857 3.733S11.122 11.833 9 11.833M9 5.61c-1.414 0-2.57 1.12-2.57 2.489S7.585 10.588 9 10.588s2.572-1.12 2.572-2.488c0-1.369-1.157-2.489-2.571-2.489"/><path fill="#908C8C" d="M9 14.321c-4.1 0-7.7-2.413-8.96-6.021a.53.53 0 0 1 0-.398C1.299 4.305 4.912 1.879 9 1.879s7.701 2.414 8.961 6.022a.53.53 0 0 1 0 .398c-1.26 3.596-4.872 6.022-8.96 6.022m-7.676-6.22C2.47 11.085 5.53 13.076 9 13.076s6.519-1.99 7.676-4.977C15.532 5.114 12.472 3.123 9 3.123c-3.471 0-6.518 1.99-7.676 4.977"/><path fill="#908C8C" d="M16.715 16.188a.62.62 0 0 1-.45-.187L.836 1.07a.6.6 0 0 1 0-.883.65.65 0 0 1 .913 0L17.165 15.13a.6.6 0 0 1 0 .883.66.66 0 0 1-.45.187z"/></svg>
